tools/download-figma-icons/icons/solid/motion-detector.svg

<svg width="24" height="24" viewBox="0 0 24 24" fill="none" xmlns="http://www.w3.org/2000/svg">
<path fill-rule="evenodd" clip-rule="evenodd" d="M16.4251 12.8767C15.9226 12.8767 15.5168 12.4717 15.5168 11.9692C15.5168 11.9623 15.5188 11.9569 15.5208 11.9514C15.5229 11.9457 15.5251 11.9398 15.5251 11.9317C15.5393 11.5192 15.8318 11.1975 16.2151 11.0992C16.2369 11.0948 16.2576 11.0897 16.2777 11.0848C16.326 11.0729 16.3716 11.0617 16.4251 11.0617H16.4326C16.9276 11.0617 17.3318 11.4742 17.3318 11.9692C17.3318 12.4717 16.9276 12.8767 16.4251 12.8767ZM15.6751 20.0692H11.4594V3.89258H15.6751V9.67427C15.642 9.68892 15.6087 9.70298 15.5753 9.71701L15.5169 9.74177C15.5026 9.74927 15.4876 9.75677 15.4651 9.76502C14.9026 10.0043 14.4519 10.455 14.2126 11.0175C14.2126 11.0305 14.2058 11.0378 14.1989 11.0453L14.1969 11.0475C14.1526 11.1743 14.1151 11.3018 14.0844 11.4292C14.0813 11.4417 14.0782 11.453 14.0751 11.4642L14.0751 11.4642C14.0708 11.4798 14.0666 11.495 14.0626 11.5125C14.0326 11.6617 14.0169 11.8117 14.0169 11.9617V11.9692C14.0169 12.135 14.0326 12.2842 14.0626 12.4342C14.0656 12.444 14.0672 12.4539 14.0688 12.4631C14.0708 12.4752 14.0726 12.4862 14.0769 12.4942C14.2569 13.3417 14.8651 14.01 15.6751 14.2717V20.0692ZM8.4977 12.735H6.65272C6.24023 12.735 5.90273 12.3967 5.90273 11.985C5.90273 11.5642 6.24023 11.235 6.65272 11.235H8.4977C8.90945 11.235 9.24769 11.5642 9.24769 11.985C9.24769 12.3967 8.90945 12.735 8.4977 12.735ZM17.1752 9.68919V3.51C17.1752 2.89425 16.6727 2.39251 16.0577 2.39251H11.4595V1.48502C11.4595 1.01927 11.2503 0.591778 10.8753 0.306781C10.507 0.0217837 10.0345 -0.0682154 9.58452 0.0517834L1.10211 2.30926C0.457112 2.48251 0.000366207 3.075 0.000366207 3.74175V20.1673C0.000366207 20.8341 0.449612 21.4266 1.09536 21.6073L9.57702 23.9473C9.71277 23.9765 9.84027 23.999 9.97452 23.999C10.2978 23.999 10.6128 23.894 10.8753 23.6915C11.2428 23.4065 11.4595 22.9798 11.4595 22.5066V21.5691H16.0577C16.6727 21.5691 17.1752 21.0666 17.1752 20.4523V14.2491C18.1344 13.9341 18.8319 13.0342 18.8319 11.9692C18.8319 10.9042 18.1344 10.0124 17.1752 9.68919ZM19.9539 8.4522C19.6607 8.15895 19.1867 8.15895 18.8934 8.4522C18.6002 8.74545 18.6002 9.21944 18.8934 9.51269C20.2547 10.8739 20.2547 13.0894 18.8934 14.4506C18.6002 14.7439 18.6002 15.2179 18.8934 15.5111C19.0397 15.6574 19.2317 15.7309 19.4237 15.7309C19.6157 15.7309 19.8077 15.6574 19.9539 15.5111C21.9001 13.5649 21.9001 10.3984 19.9539 8.4522ZM20.7193 6.61825C21.0125 6.325 21.4865 6.325 21.7798 6.61825C24.7332 9.57172 24.7332 14.3754 21.7798 17.3281C21.6335 17.4751 21.4415 17.5479 21.2495 17.5479C21.0575 17.5479 20.8655 17.4751 20.7193 17.3281C20.426 17.0356 20.426 16.5609 20.7193 16.2677C23.087 13.8999 23.087 10.0465 20.7193 7.67874C20.426 7.38549 20.426 6.9115 20.7193 6.61825Z" fill="black"/>
</svg>

<svg width="24" height="24" viewBox="0 0 24 24" fill="none" xmlns="http://www.w3.org/2000/svg"><path fill-rule="evenodd" clip-rule="evenodd" d="M16.425 12.877a.907.907 0 0 1-.908-.908c0-.007.002-.012.004-.018a.05.05 0 0 0 .004-.02.895.895 0 0 1 .69-.832l.063-.014a.593.593 0 0 1 .147-.023h.008a.908.908 0 0 1-.008 1.815Zm-.75 7.192H11.46V3.893h4.216v5.781a5.71 5.71 0 0 1-.1.043l-.058.025a2.374 2.374 0 0 0-1.304 1.276c0 .012-.007.02-.014.027l-.002.002a3.997 3.997 0 0 0-.122.417l-.012.048c-.03.15-.046.3-.046.45v.007c0 .166.016.315.046.465l.006.03a2.375 2.375 0 0 0 1.606 1.809v5.796Zm-7.177-7.334H6.653a.753.753 0 0 1-.75-.75c0-.42.337-.75.75-.75h1.845c.411 0 .75.33.75.75 0 .412-.339.75-.75.75Zm8.677-3.046V3.51a1.12 1.12 0 0 0-1.117-1.117H11.46v-.908c0-.466-.21-.893-.585-1.178a1.474 1.474 0 0 0-1.29-.255L1.102 2.309A1.493 1.493 0 0 0 0 3.742v16.425c0 .667.45 1.26 1.095 1.44l8.482 2.34c.136.03.263.052.398.052a1.487 1.487 0 0 0 1.485-1.492v-.938h4.598a1.12 1.12 0 0 0 1.117-1.117V14.25a2.404 2.404 0 0 0 1.657-2.28 2.412 2.412 0 0 0-1.657-2.28Zm2.779-1.237a.75.75 0 1 0-1.06 1.06 3.496 3.496 0 0 1 0 4.939.75.75 0 1 0 1.06 1.06 4.997 4.997 0 0 0 0-7.059Zm.765-1.834a.75.75 0 0 1 1.06 0c2.954 2.954 2.954 7.757 0 10.71a.745.745 0 0 1-.53.22.749.749 0 0 1-.53-1.28 6.08 6.08 0 0 0 0-8.59.75.75 0 0 1 0-1.06Z" fill="currentColor"/></svg>
